X:41
T:Scotch Air. Le4.041, A
B:L.Leadley MS#4 c1850
Z:Village Music Project, 2016 Steve Mansfield
M:6/8
L:1/8
Q:3/8=60
K:D
d/e/ | {de}f>ed A<FA | B<GB A<Fd/e/ | {de}f>ed A<FA | B<dc d2 :|
|: a | f2a e2f | dcd c2a | f2a e2a | ^gfg Ha2a |
b2b a2a | g2g f2d/e/ | {de}f>ed Bgb | a2c d2 :|

